www/assets/images/test_icons/flags/KG.svg

<svg fill="none" height="15" viewBox="0 0 21 15" width="21" xmlns="http://www.w3.org/2000/svg" xmlns:xlink="http://www.w3.org/1999/xlink"><mask id="a" height="15" maskUnits="userSpaceOnUse" width="21" x="0" y="0"><path d="m19 0h-17c-1.10457 0-2 .89543-2 2v11c0 1.1046.89543 2 2 2h17c1.1046 0 2-.8954 2-2v-11c0-1.10457-.8954-2-2-2z" fill="#fff"/></mask><g mask="url(#a)"><path d="m19 0h-17c-1.10457 0-2 .89543-2 2v11c0 1.1046.89543 2 2 2h17c1.1046 0 2-.8954 2-2v-11c0-1.10457-.8954-2-2-2z" fill="#eb0624"/><path clip-rule="evenodd" d="m10.206 9.485c.097.01.195.015.294.015.1 0 .197-.005.294-.015l-.294-.735zm-1.356-.545c-.523-.414-.85-1.018-.85-1.69 0-.793.456-1.49 1.144-1.89l.856 2.14zm3.006-3.58c.688.4 1.144 1.097 1.144 1.89 0 .673-.328 1.277-.85 1.69l-1.15-1.44zm-.1-.056c-.37-.194-.798-.304-1.256-.304s-.887.11-1.256.304l1.256 1.57z" fill="#fff100" fill-rule="evenodd"/><path clip-rule="evenodd" d="m10.5 12c2.485 0 4.5-2.015 4.5-4.5s-2.015-4.5-4.5-4.5-4.5 2.015-4.5 4.5 2.015 4.5 4.5 4.5zm0-1c1.933 0 3.5-1.567 3.5-3.5s-1.567-3.5-3.5-3.5-3.5 1.567-3.5 3.5 1.567 3.5 3.5 3.5z" fill="#fff100" fill-rule="evenodd"/><path d="m19 .5h-17c-.82843 0-1.5.67157-1.5 1.5v11c0 .8284.67157 1.5 1.5 1.5h17c.8284 0 1.5-.6716 1.5-1.5v-11c0-.82843-.6716-1.5-1.5-1.5z" stroke="#000" stroke-opacity=".1"/></g></svg>

<svg width="21" height="15" viewBox="0 0 21 15" fill="none" xmlns="http://www.w3.org/2000/svg">
<mask id="mask0_3_122" style="mask-type:alpha" maskUnits="userSpaceOnUse" x="0" y="0" width="21" height="15">
<path d="M19 0H2C0.89543 0 0 0.89543 0 2V13C0 14.1046 0.89543 15 2 15H19C20.1046 15 21 14.1046 21 13V2C21 0.89543 20.1046 0 19 0Z" fill="white"/>
</mask>
<g mask="url(#mask0_3_122)">
<path d="M19 0H2C0.89543 0 0 0.89543 0 2V13C0 14.1046 0.89543 15 2 15H19C20.1046 15 21 14.1046 21 13V2C21 0.89543 20.1046 0 19 0Z" fill="#EB0624"/>
<path fill-rule="evenodd" clip-rule="evenodd" d="M10.206 9.485C10.303 9.495 10.401 9.5 10.5 9.5C10.6 9.5 10.697 9.495 10.794 9.485L10.5 8.75L10.206 9.485ZM8.85 8.94C8.327 8.526 8 7.922 8 7.25C8 6.457 8.456 5.76 9.144 5.36L10 7.5L8.85 8.94ZM11.856 5.36C12.544 5.76 13 6.457 13 7.25C13 7.923 12.672 8.527 12.15 8.94L11 7.5L11.856 5.36ZM11.756 5.304C11.386 5.11 10.958 5 10.5 5C10.042 5 9.613 5.11 9.244 5.304L10.5 6.874L11.756 5.304Z" fill="#FFF100"/>
<path fill-rule="evenodd" clip-rule="evenodd" d="M10.5 12C12.985 12 15 9.985 15 7.5C15 5.015 12.985 3 10.5 3C8.015 3 6 5.015 6 7.5C6 9.985 8.015 12 10.5 12ZM10.5 11C12.433 11 14 9.433 14 7.5C14 5.567 12.433 4 10.5 4C8.567 4 7 5.567 7 7.5C7 9.433 8.567 11 10.5 11Z" fill="#FFF100"/>
<path d="M19 0.5H2C1.17157 0.5 0.5 1.17157 0.5 2V13C0.5 13.8284 1.17157 14.5 2 14.5H19C19.8284 14.5 20.5 13.8284 20.5 13V2C20.5 1.17157 19.8284 0.5 19 0.5Z" stroke="black" stroke-opacity="0.1"/>
</g>
</svg>
